Newaita-dark/apps/64/blueman.svg

<svg height="64pt" viewBox="0 0 64 64" width="64pt" xmlns="http://www.w3.org/2000/svg" xmlns:xlink="http://www.w3.org/1999/xlink"><linearGradient id="a"><stop offset="0" stop-opacity=".313725"/><stop offset=".222222" stop-opacity=".27451"/><stop offset="1" stop-opacity="0"/></linearGradient><radialGradient id="b" cx="450.90894" cy="189.57936" gradientTransform="matrix(.00000035 -.156265 -.281277 -.0000002 89.046304 127.190664)" gradientUnits="userSpaceOnUse" r="21.166656" xlink:href="#a"/><radialGradient id="c" cx="450.90894" cy="189.57936" gradientTransform="matrix(-.00000035 .156265 .281277 .0000002 -25.540241 -15.054962)" gradientUnits="userSpaceOnUse" r="21.166656" xlink:href="#a"/><radialGradient id="d" cx="450.90894" cy="189.57936" gradientTransform="matrix(-.00000035 -.156265 .281277 -.0000002 -25.540241 127.190664)" gradientUnits="userSpaceOnUse" r="21.166656" xlink:href="#a"/><radialGradient id="e" cx="450.90894" cy="189.57936" gradientTransform="matrix(.00000035 .156265 -.281277 .0000002 89.0463 -15.054964)" gradientUnits="userSpaceOnUse" r="21.166656" xlink:href="#a"/><linearGradient id="f" gradientTransform="matrix(.0267201 0 0 .125012 24.930772 26.877567)" gradientUnits="userSpaceOnUse" x1="255.32306" x2="255.32304" y1="233.5" y2="254.66666"><stop offset="0" stop-opacity=".27451"/><stop offset="1" stop-opacity="0"/></linearGradient><linearGradient id="g" gradientUnits="userSpaceOnUse" x1="31.753048" x2="31.753048" y1="56.067868" y2="5.79220824996"><stop offset="0" stop-color="#3f51b5"/><stop offset="1" stop-color="#5c6bc0"/></linearGradient><linearGradient id="h" gradientUnits="userSpaceOnUse" x1="29.10696024996" x2="29.10696024996" y1="5.79220950008" y2="56.067868"><stop offset="0" stop-color="#e0e0e0"/><stop offset="1" stop-color="#bdbdbd"/></linearGradient><path d="m36.382812 56.066406h5.292969v-2.644531h-5.292969zm0 0" fill="url(#b)"/><path d="m27.121094 56.066406h-5.289063v2.648438h5.289063zm0 0" fill="url(#c)"/><path d="m27.121094 56.066406h-5.289063v-2.644531h5.289063zm0 0" fill="url(#d)"/><path d="m36.382812 56.066406h5.292969v2.648438h-5.292969zm0 0" fill="url(#e)"/><path d="m27.121094 55.40625h9.261718v3.308594h-9.261718zm0 0" fill="url(#f)"/><path d="m31.753906 5.792969c8.765625 0 15.875 7.105469 15.875 15.875v18.523437c0 8.769532-7.109375 15.875-15.875 15.875-8.769531 0-15.878906-7.105468-15.878906-15.875v-18.523437c0-8.769531 7.109375-15.875 15.878906-15.875zm0 0" fill="url(#g)"/><path d="m31.753906 5.792969c-8.796875 0-15.878906 7.082031-15.878906 15.875v.664062c0-8.796875 7.082031-15.878906 15.878906-15.878906 8.792969 0 15.875 7.082031 15.875 15.878906v-.664062c0-8.792969-7.082031-15.875-15.875-15.875zm0 0" fill="#fff" fill-opacity=".392157"/><path d="m15.875 39.761719v.429687c0 8.796875 7.082031 15.875 15.878906 15.875 8.792969 0 15.875-7.078125 15.875-15.875v-.429687c0 8.792969-7.082031 15.875-15.875 15.875-8.796875 0-15.878906-7.082031-15.878906-15.875zm0 0" fill-opacity=".235294"/><path d="m31.753906 5.605469c-8.898437 0-16.066406 7.167969-16.066406 16.0625v18.523437c0 8.894532 7.167969 16.0625 16.066406 16.0625 8.894532 0 16.0625-7.167968 16.0625-16.0625v-18.523437c0-8.894531-7.167968-16.0625-16.0625-16.0625zm0 .375c8.695313 0 15.6875 6.992187 15.6875 15.6875v18.523437c0 8.695313-6.992187 15.6875-15.6875 15.6875-8.695312 0-15.691406-6.992187-15.691406-15.6875v-18.523437c0-8.695313 6.996094-15.6875 15.691406-15.6875zm0 0" fill="#212121"/><path d="m31.132812 14.378906c-.539062-.007812-1.054687.195313-1.4375.570313-.386718.375-.601562.890625-.601562 1.425781v9.382812l-4.585938-4.234374c-.523437-.496094-1.273437-.675782-1.960937-.464844-.691406.210937-1.214844.777344-1.367187 1.480468-.15625.707032.082031 1.441407.617187 1.921876l7.011719 6.46875-7.011719 6.472656c-.535156.480468-.773437 1.210937-.617187 1.917968.152343.703126.675781 1.269532 1.367187 1.480469.6875.210938 1.4375.03125 1.960937-.464843l4.585938-4.234376v9.382813c0 .746094.417969 1.433594 1.085938 1.773437.664062.34375 1.464843.285157 2.074218-.148437l9.257813-6.617187c.492187-.347657.796875-.898438.835937-1.5.035156-.597657-.199218-1.183594-.640625-1.589844l-7.011719-6.472656 7.011719-6.46875c.441407-.410157.675781-.996094.636719-1.59375-.035156-.601563-.339844-1.152344-.832031-1.5l-9.257813-6.617188c-.328125-.234375-.71875-.363281-1.121094-.371094zm1.957032 5.878906 4.105468 2.933594-4.105468 3.789063zm0 14.621094 4.105468 3.792969-4.105468 2.929687zm0 0" fill="url(#h)"/><path d="m31.132812 14.378906c-.539062-.007812-1.054687.195313-1.4375.570313-.386718.375-.601562.890625-.601562 1.425781v.652344c0-.539063.214844-1.050782.601562-1.425782.382813-.378906.898438-.582031 1.4375-.570312.402344.007812.792969.136719 1.121094.371094l9.257813 6.613281c.433593.308594.722656.777344.808593 1.300781.125-.75-.1875-1.507812-.808593-1.949218l-9.257813-6.617188c-.328125-.234375-.71875-.363281-1.121094-.371094zm-8.078124 6.59375c-.574219.023438-1.113282.292969-1.472657.738282-.363281.445312-.515625 1.023437-.421875 1.589843.152344-.9375.945313-1.640625 1.894532-1.675781.539062-.023438 1.0625.175781 1.453124.546875l4.585938 4.234375v-.648438l-4.585938-4.234374c-.390624-.371094-.914062-.570313-1.453124-.550782zm13.527343 2.78125-3.492187 3.226563v.648437l3.492187-3.222656.214844.152344.398437-.363282zm-8.316406 7.679688-6.46875 5.96875c-.507813.453125-.75 1.140625-.636719 1.816406.074219-.453125.296875-.863281.636719-1.167969l6.46875-5.96875.191406.175781.351563-.324218zm6.976563 0-.546876.5.355469.324218.191407-.175781 6.464843 5.96875c.328125.300781.542969.703125.613281 1.144531.113282-.664062-.121093-1.339843-.613281-1.792968zm1.339843 7.675781-3.492187 2.492187v.652344l3.492187-2.496094.214844.199219.398437-.28125zm0 0" fill="#fff" fill-opacity=".901961"/><path d="m33.089844 20.257812v1.234376l3.351562 2.394531.753906-.695313zm-11.859375 3.328126c-.246094.753906-.023438 1.578124.566406 2.109374l6.34375 5.851563.667969-.617187-7.011719-6.46875c-.261719-.238282-.457031-.539063-.566406-.875zm21.019531.027343c-.105469.324219-.292969.613281-.542969.847657l-7.011719 6.46875.671876.617187 6.339843-5.851563c.570313-.53125.785157-1.34375.542969-2.082031zm-9.160156 11.265625v1.234375l3.351562 3.09375.753906-.535156zm-3.996094 1.222656-4.585938 4.234376c-.496093.472656-1.203124.65625-1.867187.488281s-1.195313-.664063-1.410156-1.316407c-.28125.867188.0625 1.816407.835937 2.304688.773438.484375 1.777344.386719 2.441406-.242188l4.585938-4.234374zm13.15625 3.382813c-.132812.40625-.390625.761719-.738281 1.007813l-9.257813 6.617187c-.609375.433594-1.410156.492187-2.074218.148437-.667969-.339843-1.085938-1.027343-1.085938-1.773437v1.234375c0 .746094.417969 1.433594 1.085938 1.773438.664062.34375 1.464843.285156 2.074218-.148438l9.257813-6.617188c.710937-.503906 1.007812-1.414062.738281-2.242187zm0 0" fill-opacity=".235294"/><path d="m249.038718-99.979734c-4.312088-.062494-8.436694 1.562351-11.498902 4.562064-3.093455 2.999714-4.81204 7.12432-4.81204 11.405161v75.055333l-36.683997-33.871766c-4.1871-3.968371-10.186527-5.405733-15.686002-3.718394-5.530722 1.687338-9.717822 6.218156-10.936456 11.842619-1.249881 5.65571.656187 11.530149 4.937029 15.373532l56.088393 51.745058-56.088393 51.776306c-4.280842 3.843383-6.18691 9.686575-4.937029 15.342285 1.218634 5.624463 5.405734 10.15528 10.936456 11.842619 5.499475 1.687339 11.498902.249976 15.686002-3.718395l36.683997-33.871766v75.055333c0 5.96818 3.34343 11.467655 8.68667 14.186145 5.311993 2.749738 11.717631 2.281032 16.592166-1.187386l74.055428-52.932446c3.937124-2.780984 6.374391-7.186813 6.686861-11.998854.281223-4.780793-1.593598-9.467846-5.124511-12.717535l-56.088393-51.776306 56.088393-51.745058c3.530913-3.280937 5.405734-7.96799 5.093264-12.748783-.281223-4.81204-2.71849-9.21787-6.655614-11.998854l-74.055428-52.932445c-2.62475-1.874821-5.749451-2.905973-8.967894-2.968467zm15.654755 47.026759 32.840614 23.466509-32.840614 30.309606zm0 116.957581 32.840614 30.340853-32.840614 23.435262zm0 0" fill="none" stroke="#212121" stroke-linecap="round" stroke-linejoin="round" stroke-width="3" transform="matrix(.125012 0 0 .125012 0 26.877566)"/></svg>

<?xml version="1.0" encoding="UTF-8"?>
<svg xmlns="http://www.w3.org/2000/svg" xmlns:xlink="http://www.w3.org/1999/xlink" width="64pt" height="64pt" viewBox="0 0 64 64" version="1.1">
<defs>
<radialGradient id="radial0" gradientUnits="userSpaceOnUse" cx="450.90894" cy="189.57936" fx="450.90894" fy="189.57936" r="21.166656" gradientTransform="matrix(0.000000348341,-0.156265,-0.281277,-0.000000203077,89.046304,127.190664)">
<stop offset="0" style="stop-color:rgb(0%,0%,0%);stop-opacity:0.313725;"/>
<stop offset="0.222222" style="stop-color:rgb(0%,0%,0%);stop-opacity:0.27451;"/>
<stop offset="1" style="stop-color:rgb(0%,0%,0%);stop-opacity:0;"/>
</radialGradient>
<radialGradient id="radial1" gradientUnits="userSpaceOnUse" cx="450.90894" cy="189.57936" fx="450.90894" fy="189.57936" r="21.166656" gradientTransform="matrix(-0.000000348341,0.156265,0.281277,0.000000203077,-25.540241,-15.054962)">
<stop offset="0" style="stop-color:rgb(0%,0%,0%);stop-opacity:0.313725;"/>
<stop offset="0.222222" style="stop-color:rgb(0%,0%,0%);stop-opacity:0.27451;"/>
<stop offset="1" style="stop-color:rgb(0%,0%,0%);stop-opacity:0;"/>
</radialGradient>
<radialGradient id="radial2" gradientUnits="userSpaceOnUse" cx="450.90894" cy="189.57936" fx="450.90894" fy="189.57936" r="21.166656" gradientTransform="matrix(-0.000000348341,-0.156265,0.281277,-0.000000203077,-25.540241,127.190664)">
<stop offset="0" style="stop-color:rgb(0%,0%,0%);stop-opacity:0.313725;"/>
<stop offset="0.222222" style="stop-color:rgb(0%,0%,0%);stop-opacity:0.27451;"/>
<stop offset="1" style="stop-color:rgb(0%,0%,0%);stop-opacity:0;"/>
</radialGradient>
<radialGradient id="radial3" gradientUnits="userSpaceOnUse" cx="450.90894" cy="189.57936" fx="450.90894" fy="189.57936" r="21.166656" gradientTransform="matrix(0.000000348341,0.156265,-0.281277,0.000000203077,89.0463,-15.054964)">
<stop offset="0" style="stop-color:rgb(0%,0%,0%);stop-opacity:0.313725;"/>
<stop offset="0.222222" style="stop-color:rgb(0%,0%,0%);stop-opacity:0.27451;"/>
<stop offset="1" style="stop-color:rgb(0%,0%,0%);stop-opacity:0;"/>
</radialGradient>
<linearGradient id="linear0" gradientUnits="userSpaceOnUse" x1="255.32306" y1="233.5" x2="255.32304" y2="254.66666" gradientTransform="matrix(0.0267201,0,0,0.125012,24.930772,26.877567)">
<stop offset="0" style="stop-color:rgb(0%,0%,0%);stop-opacity:0.27451;"/>
<stop offset="1" style="stop-color:rgb(0%,0%,0%);stop-opacity:0;"/>
</linearGradient>
<linearGradient id="linear1" gradientUnits="userSpaceOnUse" x1="254" y1="233.5" x2="254" y2="-168.66667" gradientTransform="matrix(0.125012,0,0,0.125012,0,26.877566)">
<stop offset="0" style="stop-color:rgb(24.705882%,31.764706%,70.980392%);stop-opacity:1;"/>
<stop offset="1" style="stop-color:rgb(36.078431%,41.960784%,75.294118%);stop-opacity:1;"/>
</linearGradient>
<linearGradient id="linear2" gradientUnits="userSpaceOnUse" x1="232.83333" y1="-168.66666" x2="232.83333" y2="233.5" gradientTransform="matrix(0.125012,0,0,0.125012,0,26.877566)">
<stop offset="0" style="stop-color:rgb(87.843137%,87.843137%,87.843137%);stop-opacity:1;"/>
<stop offset="1" style="stop-color:rgb(74.117647%,74.117647%,74.117647%);stop-opacity:1;"/>
</linearGradient>
</defs>
<g id="surface1">
<path style=" stroke:none;fill-rule:nonzero;fill:url(#radial0);" d="M 36.382812 56.066406 L 41.675781 56.066406 L 41.675781 53.421875 L 36.382812 53.421875 Z M 36.382812 56.066406 "/>
<path style=" stroke:none;fill-rule:nonzero;fill:url(#radial1);" d="M 27.121094 56.066406 L 21.832031 56.066406 L 21.832031 58.714844 L 27.121094 58.714844 Z M 27.121094 56.066406 "/>
<path style=" stroke:none;fill-rule:nonzero;fill:url(#radial2);" d="M 27.121094 56.066406 L 21.832031 56.066406 L 21.832031 53.421875 L 27.121094 53.421875 Z M 27.121094 56.066406 "/>
<path style=" stroke:none;fill-rule:nonzero;fill:url(#radial3);" d="M 36.382812 56.066406 L 41.675781 56.066406 L 41.675781 58.714844 L 36.382812 58.714844 Z M 36.382812 56.066406 "/>
<path style=" stroke:none;fill-rule:nonzero;fill:url(#linear0);" d="M 27.121094 55.40625 L 36.382812 55.40625 L 36.382812 58.714844 L 27.121094 58.714844 Z M 27.121094 55.40625 "/>
<path style=" stroke:none;fill-rule:nonzero;fill:url(#linear1);" d="M 31.753906 5.792969 C 40.519531 5.792969 47.628906 12.898438 47.628906 21.667969 L 47.628906 40.191406 C 47.628906 48.960938 40.519531 56.066406 31.753906 56.066406 C 22.984375 56.066406 15.875 48.960938 15.875 40.191406 L 15.875 21.667969 C 15.875 12.898438 22.984375 5.792969 31.753906 5.792969 Z M 31.753906 5.792969 "/>
<path style=" stroke:none;fill-rule:nonzero;fill:rgb(100%,100%,100%);fill-opacity:0.392157;" d="M 31.753906 5.792969 C 22.957031 5.792969 15.875 12.875 15.875 21.667969 L 15.875 22.332031 C 15.875 13.535156 22.957031 6.453125 31.753906 6.453125 C 40.546875 6.453125 47.628906 13.535156 47.628906 22.332031 L 47.628906 21.667969 C 47.628906 12.875 40.546875 5.792969 31.753906 5.792969 Z M 31.753906 5.792969 "/>
<path style=" stroke:none;fill-rule:nonzero;fill:rgb(0%,0%,0%);fill-opacity:0.235294;" d="M 15.875 39.761719 L 15.875 40.191406 C 15.875 48.988281 22.957031 56.066406 31.753906 56.066406 C 40.546875 56.066406 47.628906 48.988281 47.628906 40.191406 L 47.628906 39.761719 C 47.628906 48.554688 40.546875 55.636719 31.753906 55.636719 C 22.957031 55.636719 15.875 48.554688 15.875 39.761719 Z M 15.875 39.761719 "/>
<path style=" stroke:none;fill-rule:nonzero;fill:rgb(12.941176%,12.941176%,12.941176%);fill-opacity:1;" d="M 31.753906 5.605469 C 22.855469 5.605469 15.6875 12.773438 15.6875 21.667969 L 15.6875 40.191406 C 15.6875 49.085938 22.855469 56.253906 31.753906 56.253906 C 40.648438 56.253906 47.816406 49.085938 47.816406 40.191406 L 47.816406 21.667969 C 47.816406 12.773438 40.648438 5.605469 31.753906 5.605469 Z M 31.753906 5.980469 C 40.449219 5.980469 47.441406 12.972656 47.441406 21.667969 L 47.441406 40.191406 C 47.441406 48.886719 40.449219 55.878906 31.753906 55.878906 C 23.058594 55.878906 16.0625 48.886719 16.0625 40.191406 L 16.0625 21.667969 C 16.0625 12.972656 23.058594 5.980469 31.753906 5.980469 Z M 31.753906 5.980469 "/>
<path style=" stroke:none;fill-rule:nonzero;fill:url(#linear2);" d="M 31.132812 14.378906 C 30.59375 14.371094 30.078125 14.574219 29.695312 14.949219 C 29.308594 15.324219 29.09375 15.839844 29.09375 16.375 L 29.09375 25.757812 L 24.507812 21.523438 C 23.984375 21.027344 23.234375 20.847656 22.546875 21.058594 C 21.855469 21.269531 21.332031 21.835938 21.179688 22.539062 C 21.023438 23.246094 21.261719 23.980469 21.796875 24.460938 L 28.808594 30.929688 L 21.796875 37.402344 C 21.261719 37.882812 21.023438 38.613281 21.179688 39.320312 C 21.332031 40.023438 21.855469 40.589844 22.546875 40.800781 C 23.234375 41.011719 23.984375 40.832031 24.507812 40.335938 L 29.09375 36.101562 L 29.09375 45.484375 C 29.09375 46.230469 29.511719 46.917969 30.179688 47.257812 C 30.84375 47.601562 31.644531 47.542969 32.253906 47.109375 L 41.511719 40.492188 C 42.003906 40.144531 42.308594 39.59375 42.347656 38.992188 C 42.382812 38.394531 42.148438 37.808594 41.707031 37.402344 L 34.695312 30.929688 L 41.707031 24.460938 C 42.148438 24.050781 42.382812 23.464844 42.34375 22.867188 C 42.308594 22.265625 42.003906 21.714844 41.511719 21.367188 L 32.253906 14.75 C 31.925781 14.515625 31.535156 14.386719 31.132812 14.378906 Z M 33.089844 20.257812 L 37.195312 23.191406 L 33.089844 26.980469 Z M 33.089844 34.878906 L 37.195312 38.671875 L 33.089844 41.601562 Z M 33.089844 34.878906 "/>
<path style=" stroke:none;fill-rule:nonzero;fill:rgb(100%,100%,100%);fill-opacity:0.901961;" d="M 31.132812 14.378906 C 30.59375 14.371094 30.078125 14.574219 29.695312 14.949219 C 29.308594 15.324219 29.09375 15.839844 29.09375 16.375 L 29.09375 17.027344 C 29.09375 16.488281 29.308594 15.976562 29.695312 15.601562 C 30.078125 15.222656 30.59375 15.019531 31.132812 15.03125 C 31.535156 15.039062 31.925781 15.167969 32.253906 15.402344 L 41.511719 22.015625 C 41.945312 22.324219 42.234375 22.792969 42.320312 23.316406 C 42.445312 22.566406 42.132812 21.808594 41.511719 21.367188 L 32.253906 14.75 C 31.925781 14.515625 31.535156 14.386719 31.132812 14.378906 Z M 23.054688 20.972656 C 22.480469 20.996094 21.941406 21.265625 21.582031 21.710938 C 21.21875 22.15625 21.066406 22.734375 21.160156 23.300781 C 21.3125 22.363281 22.105469 21.660156 23.054688 21.625 C 23.59375 21.601562 24.117188 21.800781 24.507812 22.171875 L 29.09375 26.40625 L 29.09375 25.757812 L 24.507812 21.523438 C 24.117188 21.152344 23.59375 20.953125 23.054688 20.972656 Z M 36.582031 23.753906 L 33.089844 26.980469 L 33.089844 27.628906 L 36.582031 24.40625 L 36.796875 24.558594 L 37.195312 24.195312 Z M 28.265625 31.433594 L 21.796875 37.402344 C 21.289062 37.855469 21.046875 38.542969 21.160156 39.21875 C 21.234375 38.765625 21.457031 38.355469 21.796875 38.050781 L 28.265625 32.082031 L 28.457031 32.257812 L 28.808594 31.933594 Z M 35.242188 31.433594 L 34.695312 31.933594 L 35.050781 32.257812 L 35.242188 32.082031 L 41.707031 38.050781 C 42.035156 38.351562 42.25 38.753906 42.320312 39.195312 C 42.433594 38.53125 42.199219 37.855469 41.707031 37.402344 Z M 36.582031 39.109375 L 33.089844 41.601562 L 33.089844 42.253906 L 36.582031 39.757812 L 36.796875 39.957031 L 37.195312 39.675781 Z M 36.582031 39.109375 "/>
<path style=" stroke:none;fill-rule:nonzero;fill:rgb(0%,0%,0%);fill-opacity:0.235294;" d="M 33.089844 20.257812 L 33.089844 21.492188 L 36.441406 23.886719 L 37.195312 23.191406 Z M 21.230469 23.585938 C 20.984375 24.339844 21.207031 25.164062 21.796875 25.695312 L 28.140625 31.546875 L 28.808594 30.929688 L 21.796875 24.460938 C 21.535156 24.222656 21.339844 23.921875 21.230469 23.585938 Z M 42.25 23.613281 C 42.144531 23.9375 41.957031 24.226562 41.707031 24.460938 L 34.695312 30.929688 L 35.367188 31.546875 L 41.707031 25.695312 C 42.277344 25.164062 42.492188 24.351562 42.25 23.613281 Z M 33.089844 34.878906 L 33.089844 36.113281 L 36.441406 39.207031 L 37.195312 38.671875 Z M 29.09375 36.101562 L 24.507812 40.335938 C 24.011719 40.808594 23.304688 40.992188 22.640625 40.824219 C 21.976562 40.65625 21.445312 40.160156 21.230469 39.507812 C 20.949219 40.375 21.292969 41.324219 22.066406 41.8125 C 22.839844 42.296875 23.84375 42.199219 24.507812 41.570312 L 29.09375 37.335938 Z M 42.25 39.484375 C 42.117188 39.890625 41.859375 40.246094 41.511719 40.492188 L 32.253906 47.109375 C 31.644531 47.542969 30.84375 47.601562 30.179688 47.257812 C 29.511719 46.917969 29.09375 46.230469 29.09375 45.484375 L 29.09375 46.71875 C 29.09375 47.464844 29.511719 48.152344 30.179688 48.492188 C 30.84375 48.835938 31.644531 48.777344 32.253906 48.34375 L 41.511719 41.726562 C 42.222656 41.222656 42.519531 40.3125 42.25 39.484375 Z M 42.25 39.484375 "/>
<path style="fill:none;stroke-width:3;stroke-linecap:round;stroke-linejoin:round;stroke:rgb(12.941176%,12.941176%,12.941176%);stroke-opacity:1;stroke-miterlimit:4;" d="M 249.038718 -99.979734 C 244.72663 -100.042228 240.602024 -98.417383 237.539816 -95.41767 C 234.446361 -92.417956 232.727776 -88.29335 232.727776 -84.012509 L 232.727776 -8.957176 L 196.043779 -42.828942 C 191.856679 -46.797313 185.857252 -48.234675 180.357777 -46.547336 C 174.827055 -44.859998 170.639955 -40.32918 169.421321 -34.704717 C 168.17144 -29.049007 170.077508 -23.174568 174.35835 -19.331185 L 230.446743 32.413873 L 174.35835 84.190179 C 170.077508 88.033562 168.17144 93.876754 169.421321 99.532464 C 170.639955 105.156927 174.827055 109.687744 180.357777 111.375083 C 185.857252 113.062422 191.856679 111.625059 196.043779 107.656688 L 232.727776 73.784922 L 232.727776 148.840255 C 232.727776 154.808435 236.071206 160.30791 241.414446 163.0264 C 246.726439 165.776138 253.132077 165.307432 258.006612 161.839014 L 332.06204 108.906568 C 335.999164 106.125584 338.436431 101.719755 338.748901 96.907714 C 339.030124 92.126921 337.155303 87.439868 333.62439 84.190179 L 277.535997 32.413873 L 333.62439 -19.331185 C 337.155303 -22.612122 339.030124 -27.299175 338.717654 -32.079968 C 338.436431 -36.892008 335.999164 -41.297838 332.06204 -44.078822 L 258.006612 -97.011267 C 255.381862 -98.886088 252.257161 -99.91724 249.038718 -99.979734 Z M 264.693473 -52.952975 L 297.534087 -29.486466 L 264.693473 0.82314 Z M 264.693473 64.004606 L 297.534087 94.345459 L 264.693473 117.780721 Z M 264.693473 64.004606 " transform="matrix(0.125012,0,0,0.125012,0,26.877566)"/>
</g>
</svg>
